svg/Tango/actions/tab-new.svg

<?xml version="1.0" encoding="UTF-8" standalone="no"?>
<!-- Created with Inkscape (http://www.inkscape.org/) -->
<svg
   xmlns:dc="http://purl.org/dc/elements/1.1/"
   xmlns:cc="http://creativecommons.org/ns#"
   xmlns:rdf="http://www.w3.org/1999/02/22-rdf-syntax-ns#"
   xmlns:svg="http://www.w3.org/2000/svg"
   xmlns="http://www.w3.org/2000/svg"
   xmlns:xlink="http://www.w3.org/1999/xlink"
   xmlns:sodipodi="http://sodipodi.sourceforge.net/DTD/sodipodi-0.dtd"
   xmlns:inkscape="http://www.inkscape.org/namespaces/inkscape"
   width="48px"
   height="48px"
   id="svg1306"
   sodipodi:version="0.32"
   inkscape:version="0.46"
   sodipodi:docbase="/home/jimmac/src/cvs/tango-icon-theme/scalable/actions"
   sodipodi:docname="tab-new.svg"
   inkscape:output_extension="org.inkscape.output.svg.inkscape">
  <defs
     id="defs1308">
    <inkscape:perspective
       sodipodi:type="inkscape:persp3d"
       inkscape:vp_x="0 : 24 : 1"
       inkscape:vp_y="0 : 1000 : 0"
       inkscape:vp_z="48 : 24 : 1"
       inkscape:persp3d-origin="24 : 16 : 1"
       id="perspective51" />
    <radialGradient
       inkscape:collect="always"
       xlink:href="#linearGradient5060"
       id="radialGradient5031"
       gradientUnits="userSpaceOnUse"
       gradientTransform="matrix(-2.774389,0,0,1.969706,112.7623,-872.8854)"
       cx="605.71429"
       cy="486.64789"
       fx="605.71429"
       fy="486.64789"
       r="117.14286" />
    <linearGradient
       inkscape:collect="always"
       id="linearGradient5060">
      <stop
         style="stop-color:black;stop-opacity:1;"
         offset="0"
         id="stop5062" />
      <stop
         style="stop-color:black;stop-opacity:0;"
         offset="1"
         id="stop5064" />
    </linearGradient>
    <radialGradient
       inkscape:collect="always"
       xlink:href="#linearGradient5060"
       id="radialGradient5029"
       gradientUnits="userSpaceOnUse"
       gradientTransform="matrix(2.774389,0,0,1.969706,-1891.633,-872.8854)"
       cx="605.71429"
       cy="486.64789"
       fx="605.71429"
       fy="486.64789"
       r="117.14286" />
    <linearGradient
       id="linearGradient5048">
      <stop
         style="stop-color:black;stop-opacity:0;"
         offset="0"
         id="stop5050" />
      <stop
         id="stop5056"
         offset="0.5"
         style="stop-color:black;stop-opacity:1;" />
      <stop
         style="stop-color:black;stop-opacity:0;"
         offset="1"
         id="stop5052" />
    </linearGradient>
    <linearGradient
       inkscape:collect="always"
       xlink:href="#linearGradient5048"
       id="linearGradient5027"
       gradientUnits="userSpaceOnUse"
       gradientTransform="matrix(2.774389,0,0,1.969706,-1892.179,-872.8854)"
       x1="302.85715"
       y1="366.64789"
       x2="302.85715"
       y2="609.50507" />
    <linearGradient
       inkscape:collect="always"
       id="linearGradient2218">
      <stop
         style="stop-color:#000000;stop-opacity:1;"
         offset="0"
         id="stop2220" />
      <stop
         style="stop-color:#000000;stop-opacity:0;"
         offset="1"
         id="stop2222" />
    </linearGradient>
    <linearGradient
       inkscape:collect="always"
       id="linearGradient2200">
      <stop
         style="stop-color:#ffffff;stop-opacity:1;"
         offset="0"
         id="stop2202" />
      <stop
         style="stop-color:#ffffff;stop-opacity:0;"
         offset="1"
         id="stop2204" />
    </linearGradient>
    <linearGradient
       id="linearGradient2087">
      <stop
         style="stop-color:#e5e5e5;stop-opacity:1;"
         offset="0"
         id="stop2089" />
      <stop
         style="stop-color:#c8c8c8;stop-opacity:1;"
         offset="1"
         id="stop2091" />
    </linearGradient>
    <linearGradient
       id="linearGradient8498">
      <stop
         id="stop8500"
         offset="0.0000000"
         style="stop-color:#bcbcb4;stop-opacity:1.0000000;" />
      <stop
         style="stop-color:#e4e4e1;stop-opacity:1.0000000;"
         offset="0.50000000"
         id="stop8504" />
      <stop
         id="stop8502"
         offset="1.0000000"
         style="stop-color:#dadad6;stop-opacity:1.0000000;" />
    </linearGradient>
    <linearGradient
       id="linearGradient7764">
      <stop
         style="stop-color:#ffffff;stop-opacity:1;"
         offset="0"
         id="stop7766" />
      <stop
         style="stop-color:#ffffff;stop-opacity:0.52577317;"
         offset="1.0000000"
         id="stop7768" />
    </linearGradient>
    <linearGradient
       id="linearGradient12512">
      <stop
         id="stop12513"
         offset="0.0000000"
         style="stop-color:#ffffff;stop-opacity:1.0000000;" />
      <stop
         id="stop12517"
         offset="0.50000000"
         style="stop-color:#fff520;stop-opacity:0.89108908;" />
      <stop
         id="stop12514"
         offset="1.0000000"
         style="stop-color:#fff300;stop-opacity:0.0000000;" />
    </linearGradient>
    <radialGradient
       r="14.375000"
       fy="125.00000"
       fx="55.000000"
       cy="125.00000"
       cx="55.000000"
       gradientUnits="userSpaceOnUse"
       id="radialGradient278"
       xlink:href="#linearGradient12512"
       inkscape:collect="always" />
    <linearGradient
       id="linearGradient2091">
      <stop
         style="stop-color:#d5d5d0;stop-opacity:1.0000000;"
         offset="0.0000000"
         id="stop2093" />
      <stop
         style="stop-color:#ffffff;stop-opacity:0.78350514;"
         offset="1.0000000"
         id="stop2095" />
    </linearGradient>
    <linearGradient
       inkscape:collect="always"
       xlink:href="#linearGradient2087"
       id="linearGradient2093"
       x1="20.758083"
       y1="33.069733"
       x2="20.908833"
       y2="16.962603"
       gradientUnits="userSpaceOnUse"
       gradientTransform="translate(0.000000,-4.000000)" />
    <linearGradient
       inkscape:collect="always"
       xlink:href="#linearGradient2200"
       id="linearGradient2206"
       x1="26.538"
       y1="22.765282"
       x2="29.267735"
       y2="45.015282"
       gradientUnits="userSpaceOnUse"
       gradientTransform="translate(0.000000,-4.000000)" />
    <radialGradient
       inkscape:collect="always"
       xlink:href="#linearGradient2218"
       id="radialGradient2224"
       cx="24.5"
       cy="39.625"
       fx="24.5"
       fy="39.625"
       r="19.25"
       gradientTransform="matrix(1.000000,0.000000,0.000000,0.344156,0.000000,25.98782)"
       gradientUnits="userSpaceOnUse" />
  </defs>
  <sodipodi:namedview
     id="base"
     pagecolor="#ffffff"
     bordercolor="#666666"
     borderopacity="0.27843137"
     inkscape:pageopacity="0.0"
     inkscape:pageshadow="2"
     inkscape:zoom="1"
     inkscape:cx="-138.5506"
     inkscape:cy="18.6481"
     inkscape:current-layer="layer1"
     showgrid="false"
     inkscape:grid-bbox="true"
     inkscape:document-units="px"
     inkscape:window-width="872"
     inkscape:window-height="775"
     inkscape:window-x="336"
     inkscape:window-y="73"
     showguides="true"
     inkscape:guide-bbox="true"
     inkscape:showpageshadow="false" />
  <metadata
     id="metadata1311">
    <rdf:RDF>
      <cc:Work
         rdf:about="">
        <dc:format>image/svg+xml</dc:format>
        <dc:type
           rdf:resource="http://purl.org/dc/dcmitype/StillImage" />
        <dc:title>New Tab</dc:title>
        <dc:date>2005-10-29</dc:date>
        <dc:creator>
          <cc:Agent>
            <dc:title>Andreas Nilsson</dc:title>
          </cc:Agent>
        </dc:creator>
        <dc:subject>
          <rdf:Bag>
            <rdf:li>tab</rdf:li>
            <rdf:li>new</rdf:li>
          </rdf:Bag>
        </dc:subject>
        <cc:license
           rdf:resource="http://creativecommons.org/licenses/publicdomain/" />
        <dc:contributor>
          <cc:Agent>
            <dc:title>Jakub Steiner</dc:title>
          </cc:Agent>
        </dc:contributor>
      </cc:Work>
      <cc:License
         rdf:about="http://creativecommons.org/licenses/publicdomain/">
        <cc:permits
           rdf:resource="http://creativecommons.org/ns#Reproduction" />
        <cc:permits
           rdf:resource="http://creativecommons.org/ns#Distribution" />
        <cc:permits
           rdf:resource="http://creativecommons.org/ns#DerivativeWorks" />
      </cc:License>
    </rdf:RDF>
  </metadata>
  <g
     id="layer1"
     inkscape:label="Layer 1"
     inkscape:groupmode="layer">
    <g
       style="display:inline"
       id="g5022"
       transform="matrix(2.509906e-2,0,0,1.903841e-2,46.449,34.56545)">
      <rect
         y="-150.69685"
         x="-1559.2523"
         height="478.35718"
         width="1339.6335"
         id="rect4173"
         style="opacity:0.40206185;color:black;fill:url(#linearGradient5027);fill-opacity:1;fill-rule:nonzero;stroke:none;stroke-width:1;stroke-linecap:round;stroke-linejoin:miter;marker:none;marker-start:none;marker-mid:none;marker-end:none;stroke-miterlimit:4;stroke-dasharray:none;stroke-dashoffset:0;stroke-opacity:1;visibility:visible;display:inline;overflow:visible" />
      <path
         sodipodi:nodetypes="cccc"
         id="path5058"
         d="M -219.61876,-150.68038 C -219.61876,-150.68038 -219.61876,327.65041 -219.61876,327.65041 C -76.744594,328.55086 125.78146,220.48075 125.78138,88.454235 C 125.78138,-43.572302 -33.655436,-150.68036 -219.61876,-150.68038 z "
         style="opacity:0.40206185;color:black;fill:url(#radialGradient5029);fill-opacity:1;fill-rule:nonzero;stroke:none;stroke-width:1;stroke-linecap:round;stroke-linejoin:miter;marker:none;marker-start:none;marker-mid:none;marker-end:none;stroke-miterlimit:4;stroke-dasharray:none;stroke-dashoffset:0;stroke-opacity:1;visibility:visible;display:inline;overflow:visible" />
      <path
         style="opacity:0.40206185;color:black;fill:url(#radialGradient5031);fill-opacity:1;fill-rule:nonzero;stroke:none;stroke-width:1;stroke-linecap:round;stroke-linejoin:miter;marker:none;marker-start:none;marker-mid:none;marker-end:none;stroke-miterlimit:4;stroke-dasharray:none;stroke-dashoffset:0;stroke-opacity:1;visibility:visible;display:inline;overflow:visible"
         d="M -1559.2523,-150.68038 C -1559.2523,-150.68038 -1559.2523,327.65041 -1559.2523,327.65041 C -1702.1265,328.55086 -1904.6525,220.48075 -1904.6525,88.454235 C -1904.6525,-43.572302 -1745.2157,-150.68036 -1559.2523,-150.68038 z "
         id="path5018"
         sodipodi:nodetypes="cccc" />
    </g>
    <path
       style="opacity:1;fill:url(#linearGradient2093);fill-opacity:1;fill-rule:evenodd;stroke:#888a85;stroke-width:1.00000024;stroke-linecap:butt;stroke-linejoin:miter;stroke-miterlimit:4;stroke-dasharray:none;stroke-dashoffset:0;stroke-opacity:1"
       d="M 8.9931158,10.471144 C 7.0727157,10.471144 5.5,12.070246 5.5,14.011369 L 5.5,29.504464 L 2.0625,29.504464 C 1.7600376,29.504464 1.53125,29.764319 1.53125,30.066964 L 1.53125,36.9375 C 1.53125,37.240146 1.7600376,37.500001 2.0625,37.5 L 45.9375,37.5 C 46.239962,37.5 46.499999,37.240147 46.5,36.9375 L 46.5,30.066964 C 46.5,29.764318 46.239964,29.504464 45.9375,29.504464 L 41.53125,29.504464 L 41.53125,14.956646 C 41.489238,13.015522 39.986234,10.441437 38.087304,10.441437 L 8.9931158,10.471144 z "
       id="rect1316"
       sodipodi:nodetypes="ccccccccccccccc" />
    <path
       style="opacity:1;fill:none;fill-opacity:1;fill-rule:evenodd;stroke:url(#linearGradient2206);stroke-width:1.00000024;stroke-linecap:round;stroke-linejoin:round;stroke-miterlimit:4;stroke-dasharray:none;stroke-dashoffset:0;stroke-opacity:1"
       d="M 8.8781957,11.497181 C 7.7210997,11.497181 6.5150196,12.460754 6.5150196,14.034638 L 6.4556053,30.616368 L 2.5380004,30.547174 L 2.6305975,36.533381 L 45.517734,36.533381 L 45.402585,30.606589 L 40.468394,30.546759 L 40.468394,15.689198 C 40.428181,13.877656 39.229751,11.526889 37.412148,11.526889 L 8.8781957,11.497181 z "
       id="path1331"
       sodipodi:nodetypes="ccccccccccc" />
    <path
       sodipodi:type="arc"
       style="color:#000000;fill:url(#radialGradient278);fill-opacity:1;fill-rule:nonzero;stroke:none;stroke-width:1.25000024;stroke-linecap:butt;stroke-linejoin:round;marker:none;marker-start:none;marker-mid:none;marker-end:none;stroke-miterlimit:4;stroke-dashoffset:0;stroke-opacity:1;visibility:visible;display:block"
       id="path12511"
       sodipodi:cx="55"
       sodipodi:cy="125"
       sodipodi:rx="14.375"
       sodipodi:ry="14.375"
       d="M 69.375 125 A 14.375 14.375 0 1 1  40.625,125 A 14.375 14.375 0 1 1  69.375 125 z"
       transform="matrix(0.611127,0.000000,0.000000,0.611127,3.922966,-63.92583)"
       inkscape:export-filename="/home/jimmac/ximian_art/icons/nautilus/suse93/stock_new-16.png"
       inkscape:export-xdpi="33.852203"
       inkscape:export-ydpi="33.852203" />
  </g>
</svg>

<svg xmlns="http://www.w3.org/2000/svg" xmlns:xlink="http://www.w3.org/1999/xlink" viewBox="0 0 48 48"><defs><linearGradient id="5" x1="20.758" y1="29.07" x2="20.909" y2="12.963" gradientUnits="userSpaceOnUse"><stop stop-color="#e5e5e5"/><stop offset="1" stop-color="#c8c8c8"/></linearGradient><linearGradient id="3" gradientUnits="userSpaceOnUse" gradientTransform="matrix(2.77439 0 0 1.96971-1892.18-872.89)" y1="366.65" x2="0" y2="609.51"><stop stop-opacity="0"/><stop offset=".5"/><stop offset="1" stop-opacity="0"/></linearGradient><linearGradient id="1"><stop/><stop offset="1" stop-opacity="0"/></linearGradient><linearGradient id="6" x1="26.538" y1="18.765" x2="29.27" y2="41.02" gradientUnits="userSpaceOnUse"><stop stop-color="#fff"/><stop offset="1" stop-color="#fff" stop-opacity="0"/></linearGradient><radialGradient r="14.375" cy="125" cx="55" gradientUnits="userSpaceOnUse" id="4"><stop stop-color="#fff"/><stop offset=".5" stop-color="#fff520" stop-opacity=".891"/><stop offset="1" stop-color="#fff300" stop-opacity="0"/></radialGradient><radialGradient xlink:href="#1" id="0" gradientUnits="userSpaceOnUse" gradientTransform="matrix(-2.77439 0 0 1.96971 112.76-872.89)" cx="605.71" cy="486.65" r="117.14"/><radialGradient xlink:href="#1" id="2" gradientUnits="userSpaceOnUse" gradientTransform="matrix(2.77439 0 0 1.96971-1891.63-872.89)" cx="605.71" cy="486.65" r="117.14"/></defs><g transform="matrix(.0251 0 0 .01904 46.45 34.565)" color="#000"><path opacity=".402" fill="url(#3)" d="m-1559.25-150.7h1339.63v478.36h-1339.63z"/><path d="m-219.62-150.68c0 0 0 478.33 0 478.33 142.87.9 345.4-107.17 345.4-239.2 0-132.03-159.44-239.13-345.4-239.13" opacity=".402" fill="url(#2)"/><path d="m-1559.25-150.68c0 0 0 478.33 0 478.33-142.87.9-345.4-107.17-345.4-239.2 0-132.03 159.44-239.13 345.4-239.13" opacity=".402" fill="url(#0)"/></g><g fill-rule="evenodd"><path d="m8.993 10.471c-1.92 0-3.493 1.599-3.493 3.54v15.493h-3.438c-.302 0-.531.26-.531.563v6.871c0 .303.229.563.531.563h43.875c.302 0 .562-.26.563-.563v-6.871c0-.303-.26-.563-.563-.563h-4.406v-14.548c-.042-1.941-1.545-4.515-3.444-4.515l-29.09.03z" fill="url(#5)" stroke="#888a85"/><path d="m8.878 11.497c-1.157 0-2.363.964-2.363 2.537l-.059 16.582-3.918-.069.093 5.986h42.887l-.115-5.927-4.934-.06v-14.858c-.04-1.812-1.239-4.162-3.056-4.162l-28.534-.03z" fill="none" stroke="url(#6)" stroke-linejoin="round" stroke-linecap="round"/></g><path d="M69.375 125A14.375 14.375 0 1 1 40.625 125 14.375 14.375 0 1 1 69.375 125" transform="matrix(.61113 0 0 .61113 3.923-63.926)" fill="url(#4)" display="block" color="#000"/></svg>
